!!!ONB: MCCC : IFC0052_02 : Extracted Monophonic Melody
!!!COM: Chopin, Frédéric
!!!OPR: Mazurkas
!!!OMV: 2
!!!SCT: Op.33
!!!ODT: 1837///
**kern
*thru
*staff1
*clefG2
*k[f#]
*e:
*M3/4
*MM144
4b
=1
8.a
16g
4f#
4e
=2
2dd
4cc
=3
8.b
16a
8e
8f#
4d
=4
2cc:
[4b
=5
8b]
16r
16cc
8cc#
8dd
4dd#
=6
8ee
16r
16ff#
8gg
8ccc
4bb
=7
8aa#
16r
16ff#
8aa#
16r
16aa
4ff#
=8
8aa
16r
16ff#
8aa
16r
16gg
4ee
=9
8b
16r
16cc
8cc#
8dd
4dd#
=10
16ee
8ggg
16r
8fff#
8eee
8ccc
8bb
=11
8aa#
8ccc#
8ddd#
8gg#
8ee
16r
16aa#
=12
2bb
4b
=13
8.a
16g
4f#
4e
=14
2dd
4cc
=15
8.b
16a
8e
8f#
4d
=16
2cc:
[4b
=17
8b]
16r
16cc
8cc#
8dd
4dd#
=18
8ee
16r
16ff#
8gg
8ccc
4bb
=19
8aa#
16r
16ff#
8aa#
16r
16aa
4ff#
=20
8aa
16r
16ff#
8aa
16r
16gg
4ee
=21
8b
16r
16cc
8cc#
8dd
4dd#
=22
16ee
8ggg
16r
8fff#
8eee
8ccc
8bb
=23
8aa#
8ff#
12ccc
12aa#
12bb
*Xtuplet
12aa
12bb-
12gg#
=24
12aa
12gg
12ff#
*tuplet
[2ee
=25
8ee]
8dd
4b
4a
=26
2g
4ee[
=27
8ee]
8dd
4b
4a
=28
2g
4cc
=29
8.cc
16b
8dd
8cc
4a
=30
8.cc
16b
8dd
8cc
4a
=31
8.g#
16f#
8.a
16g#
4e
=32
4ee
4ee
4ee[
=33
8ee]
8dd
4b
4a
=34
2g
4ee[
=35
8ee]
8dd
4b
4a
=36
2g
4cc
=37
8.b
16a
8b
8a
4d
=38
8.b
16a
8b
8a
8b
8a
=39
4g
[2a-
=40
2.a-]
=41
8.b-
16a-
8b-
8a-
4d
=42
8.b-
16a-
8b-
8a-
8b-
8a-
=43
4g
[2a
=44
2.a]
=45
4g
2a-
=46
4g#
2a
=47
4g
[2a
=48
2a]
4a-
=49
4g
4a-
4a-
=50
4a-
4a
4a
=51
4a
4a#
4a#
=52
4a#
4b
4b
=53
8.a
16g
4f#
4e
=54
2dd
4cc
=55
8.b
16a
8e
8f#
4d
=56
2cc:
[4b
=57
8b]
16r
16cc
8cc#
8dd
4dd#
=58
8ee
16r
16ff#
8gg
8ccc
4bb
=59
8aa#
16r
16ff#
8aa#
16r
16aa
4ff#
=60
8aa
16r
16ff#
8aa
16r
16gg
4ee
=61
8b
16r
16cc
8cc#
8dd
4dd#
=62
16ee
8ggg
16r
8fff#
8eee
8ccc
8bb
=63
8aa#
8bb
8ccc
8aa#
12bb
12ff#
12aa
=64
16gg
8ggg
16r
8fff#
8eee
8ccc
8bb
=65
8aa#
8bb
8ccc
8aa#
12bb
12ff#
12aa
=66
*8va
16gg
8eeee
16r
12cccc
12bbb
12ggg
12eee
12ccc
12bb
*X8va
=67
8aa#
8ff#
12ccc
12aa#
12bb
12aa
12bb-
12gg#
=68
12aa
12gg
12ff#
2ee
==
*-
